X:1
T:Title
%%score { ( 1 3 ) | ( 2 4 ) }
L:1/8
M:4/4
K:Eb
V:1 treble nm="Grand Piano"
V:3 treble 
V:2 bass 
V:4 bass 
V:1
 z4 z2[Q:1/4=100] E>F | G>G G>A G2 G>[FA] | [GB]>[GB] [GB]>[Ac] [GB]2 [FA]>[EG] | %3
 [DF]>[DF] [DF]>[EG] [FA]2 [DB]2 | G6 E>F | G>G G>A G2 G>[FA] | [GB]>[GB] [GB]>[Ac] [GB]2 G>G | %7
 F>F B>c d2 c>c |[M:3/4] [DB]6 |[M:1/4] E>F |[M:4/4] G>G G>G [DG]2 [DF]2 | z G3- G2 z2 | B6 z2 | %13
 B6 z2 | G>G G>G [DG]2 [DF]2 | z G3- G2 z2 | d6 z2 |[M:9/8] B6- B z z | %18
[M:4/4] G>_G =G>_G =G2 [GB]>G | A>G A>G A2 B>A | G>[GB] [Ac]>[Ad] [Ge]2 [Ac]>[Ad] |[M:3/4] e6 |] %22
V:2
 z4 z2 [E,G,]>[E,A,E] | [E,B,E]>[E,B,E] [E,B,E]>[E,CE] [E,B,E]2 [E,B,E]>[E,B,] | %2
 [E,E]>[E,E] [E,E]>[E,E] [E,E]2 [D,B,]>[E,B,] | [B,,B,]>[B,,B,] [B,,B,]>[B,,B,] [B,,B,]2 [B,,B,]2 | %4
 [E,B,E]6 [E,G,]>[E,A,E] | [E,B,E]>[E,B,E] [E,B,E]>[E,CE] [E,B,E]2 [E,B,E]>[E,B,] | %6
 [E,E]>[E,E] [E,E]>[E,E] [E,E]2 [E,B,E]>[E,B,E] | %7
 [F,B,D]>[F,B,D] [F,B,D]>[F,=A,E] [F,B,F]2 [F,A,E]>[F,A,E] |[M:3/4] [B,,B,]2 B,>B, B,2 | %9
[M:1/4] [G,B,]>[F,B,D] |[M:4/4] [E,B,E]>[E,B,E] [E,B,E]>[E,B,E] [B,,B,]2 [B,,A,]2 | %11
 [E,G,] [E,E]3- [E,E]2[K:treble] E>F | G6[K:bass][K:treble] z2 | G6[K:bass] z2 | %14
 [E,B,E]>[E,B,E] [E,B,E]>[E,B,E] [B,,B,]2 [B,,A,]2 | [E,G,] [E,E]3- [E,E]2[K:treble] G>_G | %16
 F6[K:bass] z2 |[M:9/8] [B,,B,]2 [B,,F,]- [B,,F,]/[B,,G,]/ [B,,A,]2- [B,,A,][B,,B,]>[B,,B,] | %18
[M:4/4] [E,B,E]>[E,=A,E] [E,B,E]>[E,A,E] [E,B,E]2 [E,E]>[E,B,E] | %19
 [B,DF]>[B,_D=E] [B,=DF]>[B,_DE] [B,=DF]2 [B,DG]>[B,DF] | %20
 [E,B,E]>[E,E] [A,E]>[F,B,] [E,B,]2 [B,,B,]>[B,,B,] |[M:3/4] B,2 z2 z2 |] %22
V:3
 x8 | x8 | x8 | x8 | x8 | x8 | x8 | x8 |[M:3/4] z2 z2 z A, |[M:1/4] x2 |[M:4/4] x8 | %11
 .E2 C>G, B,2 G>A | z2 E>C B,2 c>G | z2 E>C B,2 E>F | x8 | .E2 C>G, B,2 B>c | z2 B,>B, B,2 c>=A | %17
[M:9/8] D2 D- D/E/ F2- F[GB]>[FA] |[M:4/4] x8 | x8 | x8 |[M:3/4] G2 A>_G =G2 |] %22
V:4
 x8 | x8 | x8 | x8 | x8 | x8 | x8 | x8 |[M:3/4] x6 |[M:1/4] x2 |[M:4/4] x8 | z B, z2 z4[K:treble] | %12
 z2[K:bass] E,>E, E,2[K:treble] A>E | z2[K:bass] E,>E, E,2 [E,G,]>[E,A,E] | x8 | %15
 z B, z2 z4[K:treble] | z2[K:bass] F,>F, F,2 [F,=A,E]>[F,CE] |[M:9/8] x9 |[M:4/4] x8 | x8 | x8 | %21
[M:3/4] E,2- [E,-C]>[E,-B,] [E,B,]2 |] %22

